X:7747
T:Uncle Bernard's
O:england
M:2/4
L:1/8
K:G
P:AABB
P:A
"G"GA "D7"Bc|"G"d>e d/c/B|"D7"c>d c/B/A|"G"B>c BA|
"G"GA "D7"Bc|"G"d>e dg|"D7"f/e/d/c/ BA|"G"G2>:|
P:B
|:f2|"C"gg fe|"G"d>e d/c/B|"D7"c>d c/B/A|"G"B>c Bd|
"C"gg fe|"G"d>e dg|"D7"f/e/d/c/ BA|"G"G3:|


